images/ICONOS/SERVICIOS/PROVISION PERF ICON.svg

<svg width="33" height="40" viewBox="0 0 33 40" fill="none" xmlns="http://www.w3.org/2000/svg">
<path d="M27.1387 9.16902V0.526978H28.8581V9.16902H27.1387ZM23.6806 5.70453V3.98507H32.3226V5.70453H23.6806Z" fill="url(#paint0_linear_22_60)"/>
<path d="M18.5751 20.1883C23.1016 21.921 26.1479 24.8596 27.4723 29.3272C27.8217 30.5057 27.9768 31.7634 28.0402 32.9936C28.1144 34.4269 27.2678 35.4895 26.186 36.362C23.9448 38.1707 21.2941 39.0648 18.4923 39.5732C13.9632 40.394 9.52699 40.0651 5.26853 38.2886C0.649909 36.3614 -0.51076 33.8826 0.977329 29.2014C2.23957 25.2304 4.84422 22.3926 8.70911 20.6704C9.03519 20.525 9.36328 20.3842 9.84372 20.1745C7.14953 18.2853 5.78706 15.8321 5.93206 12.6661C6.03897 10.3321 7.05865 8.43501 8.84209 6.91328C12.2112 4.03883 17.6316 4.45742 20.535 7.80418C23.3261 11.0206 23.6709 16.5599 18.5751 20.1883ZM14.03 38.2637C17.5615 38.1392 20.9753 37.5372 24.1025 35.7272C25.8953 34.6896 26.492 33.2576 26.1526 31.2839C25.1984 25.7381 20.2811 21.5751 14.6909 21.3458C9.23365 21.1218 3.68088 24.7574 2.39325 30.8489C1.7912 33.6978 2.34448 34.818 5.01194 36.2153C7.8184 37.6853 10.8788 38.1228 14.03 38.2637ZM14.2171 19.5083C17.7893 19.5038 20.7481 16.6673 20.7669 13.2288C20.7862 9.75695 17.7466 6.74689 14.2231 6.7482C10.6315 6.74951 7.72819 9.64624 7.74022 13.2177C7.75291 16.7551 10.5928 19.5129 14.2171 19.5083Z" fill="url(#paint1_linear_22_60)"/>
<defs>
<linearGradient id="paint0_linear_22_60" x1="0.367187" y1="40" x2="28.0448" y2="40" gradientUnits="userSpaceOnUse">
<stop stop-color="#1723FF"/>
<stop offset="1" stop-color="#30E35E"/>
</linearGradient>
<linearGradient id="paint1_linear_22_60" x1="0.367187" y1="40" x2="28.0448" y2="40" gradientUnits="userSpaceOnUse">
<stop stop-color="#1723FF"/>
<stop offset="1" stop-color="#30E35E"/>
</linearGradient>
</defs>
</svg>

<svg xmlns="http://www.w3.org/2000/svg" width="33" height="40" fill="none"><path fill="url(#a)" d="M27.139 9.169V.527h1.72v8.642h-1.72ZM23.68 5.705v-1.72h8.642v1.72H23.68Z"/><path fill="url(#b)" d="M18.575 20.188c4.527 1.733 7.573 4.672 8.897 9.14.35 1.178.505 2.435.568 3.666.074 1.433-.772 2.495-1.854 3.368-2.241 1.809-4.892 2.703-7.694 3.211-4.529.821-8.965.492-13.223-1.284C.649 36.36-.511 33.883.977 29.2c1.263-3.97 3.867-6.808 7.732-8.53.326-.146.654-.287 1.135-.497-2.694-1.889-4.057-4.342-3.912-7.508.107-2.334 1.127-4.231 2.91-5.753 3.37-2.874 8.79-2.456 11.693.891 2.791 3.217 3.136 8.756-1.96 12.384ZM14.03 38.264c3.531-.125 6.945-.727 10.072-2.537 1.793-1.037 2.39-2.47 2.05-4.443-.954-5.546-5.87-9.709-11.461-9.938-5.457-.224-11.01 3.411-12.298 9.503-.602 2.849-.049 3.969 2.619 5.366 2.806 1.47 5.867 1.908 9.018 2.049Zm.187-18.756c3.572-.004 6.531-2.84 6.55-6.28.02-3.471-3.02-6.481-6.544-6.48-3.591.002-6.495 2.898-6.483 6.47.013 3.537 2.853 6.295 6.477 6.29Z"/><defs><linearGradient id="a" x1=".367" x2="28.045" y1="40" y2="40" gradientUnits="userSpaceOnUse"><stop stop-color="#1723FF"/><stop offset="1" stop-color="#30E35E"/></linearGradient><linearGradient id="b" x1=".367" x2="28.045" y1="40" y2="40" gradientUnits="userSpaceOnUse"><stop stop-color="#1723FF"/><stop offset="1" stop-color="#30E35E"/></linearGradient></defs></svg>
